src/22/panel/input-touchpad-on.svg

<svg xmlns="http://www.w3.org/2000/svg" width="22" height="22" version="1.1">
 <defs>
  <style id="current-color-scheme" type="text/css">
   .ColorScheme-Text { color:#dfdfdf; } .ColorScheme-Highlight { color:#4285f4; }
  </style>
 </defs>
 <path d="m4 4c-0.554 0-1 0.446-1 1v12c0 0.554 0.446 1 1 1h14c0.554 0 1-0.446 1-1v-12c0-0.554-0.446-1-1-1h-14zm12 1h2v1h-2v-1zm0 2h2v1h-2v-1zm0 2h2v1h-2v-1zm0 2h2v1h-2v-1zm-12 3h6v3h-6v-3zm8 0h6v3h-6v-3z" style="fill:currentColor" class="ColorScheme-Text" />
</svg>

<svg xmlns="http://www.w3.org/2000/svg" width="22" height="22" version="1.1">
 <defs>
  <style id="current-color-scheme" type="text/css">
   .ColorScheme-Text { color:#dfdfdf; } .ColorScheme-Highlight { color:#4285f4; }
  </style>
 </defs>
 <path style="fill:currentColor" class="ColorScheme-Text" d="M 3,3 C 2.446,3 2,3.446 2,4 V 18 C 2,18.554 2.446,19 3,19 H 19 C 19.554,19 20,18.554 20,18 V 4 C 20,3.446 19.554,3 19,3 Z M 16,5 H 18 V 6 H 16 Z M 16,7 H 18 V 8 H 16 Z M 16,9 H 18 V 10 H 16 Z M 16,11 H 18 V 12 H 16 Z M 4,14 H 10 V 17 H 4 Z M 12,14 H 18 V 17 H 12 Z"/>
</svg>
